icons/bdcompat-PLUGIN.svg

<svg width="18" height="18" viewBox="0 0 18 18" fill="none" xmlns="http://www.w3.org/2000/svg">
<path d="M1.5 7.76977L5.021 10.9442L5.04192 7.9093L5.05586 4.87442H6.23418C7.48221 4.87442 7.86569 4.93721 8.26311 5.22326C8.9185 5.6907 8.93245 6.8 8.291 7.29535C7.89358 7.59535 7.60074 7.65814 6.64554 7.66512H5.75309V10.3163H6.61765C7.81688 10.3163 8.31889 10.5116 8.6187 11.1047C8.94639 11.7395 8.72328 12.4721 8.09578 12.8628L7.75413 13.0721L1.5 13.114V15.9674H4.519C6.1784 15.9674 7.80294 15.9326 8.12366 15.8977C10.2363 15.6395 11.561 14.7047 12.0421 13.1419C12.2373 12.5209 12.2513 11.2791 12.0769 10.6163C11.9514 10.1279 11.6865 9.56279 11.4216 9.21395L11.2542 8.9907L11.4216 8.76046C12.3001 7.59535 12.4674 5.64884 11.812 4.26744C11.4982 3.59767 10.8847 3.01163 10.1317 2.64884C8.95337 2.08372 8.33283 2.01395 4.48414 2.01395H1.5V7.76977ZM10.9614 2.29302C11.8399 2.87907 12.4813 3.76512 12.7742 4.80465C12.8857 5.21628 12.8997 5.58605 12.8997 8.9907C12.8997 12.3535 12.8857 12.7651 12.7742 13.1698C12.4883 14.2093 11.8259 15.1302 10.9474 15.7093L10.5291 15.9814L11.4006 15.9465C14.1268 15.8209 15.9466 14.5233 16.3788 12.3953C16.437 12.1194 16.4741 11.2647 16.4904 10.2489C16.5032 9.44924 16.5032 8.54974 16.4904 7.75422C16.4747 6.77552 16.4397 5.9542 16.3858 5.66977C16.1906 4.65116 15.6468 3.74419 14.8589 3.15116C13.9455 2.46047 12.8439 2.10465 11.4006 2.04186L10.5291 2L10.9614 2.29302Z" fill="white"/>
<path fill-rule="evenodd" clip-rule="evenodd" d="M16.4904 7.75422V10.2489C16.4741 11.2647 16.437 12.1194 16.3788 12.3953C15.9466 14.5233 14.1268 15.8209 11.4006 15.9465L10.5291 15.9814L10.9474 15.7093C11.8259 15.1302 12.4883 14.2093 12.7742 13.1698C12.8857 12.7651 12.8997 12.3535 12.8997 8.9907C12.8997 5.58605 12.8857 5.21628 12.7742 4.80465C12.4813 3.76512 11.8399 2.87907 10.9614 2.29302L10.5291 2L11.4006 2.04186C12.8439 2.10465 13.9455 2.46047 14.8589 3.15116C15.6468 3.74419 16.1906 4.65116 16.3858 5.66977C16.4397 5.9542 16.4747 6.77552 16.4904 7.75422ZM1.5 13.114V15.9674H4.519C6.1784 15.9674 7.80294 15.9326 8.12366 15.8977C10.2363 15.6395 11.561 14.7047 12.0421 13.1419C12.2373 12.5209 12.2513 11.2791 12.0769 10.6163C11.9514 10.1279 11.6865 9.56279 11.4216 9.21395L11.2542 8.9907L11.4216 8.76046C12.3001 7.59535 12.4674 5.64884 11.812 4.26744C11.4982 3.59767 10.8847 3.01163 10.1317 2.64884C8.95337 2.08372 8.33283 2.01395 4.48414 2.01395H1.5V7.76977L5.021 10.9442L5.04192 7.9093L5.05586 4.87442H6.23418C7.48221 4.87442 7.86569 4.93721 8.26311 5.22326C8.9185 5.6907 8.93245 6.8 8.291 7.29535C7.89358 7.59535 7.60074 7.65814 6.64554 7.66512H5.75309V10.3163H6.61765C7.81688 10.3163 8.31889 10.5116 8.6187 11.1047C8.94639 11.7395 8.72328 12.4721 8.09578 12.8628L7.75413 13.0721L1.5 13.114Z" fill="white"/>
<path fill-rule="evenodd" clip-rule="evenodd" d="M5.021 10.9442L5.04192 7.9093L5.05586 4.87442H6.23418C7.48221 4.87442 7.86569 4.93721 8.26311 5.22326C8.9185 5.6907 8.93245 6.8 8.291 7.29535C7.89358 7.59535 7.60074 7.65814 6.64554 7.66512H5.75309V10.3163H6.61765C7.81688 10.3163 8.31889 10.5116 8.6187 11.1047C8.94639 11.7395 8.72328 12.4721 8.09578 12.8628L7.75413 13.0721L1.5 13.114V15.9674H4.519C6.1784 15.9674 7.80294 15.9326 8.12366 15.8977C10.2363 15.6395 11.561 14.7047 12.0421 13.1419C12.2373 12.5209 12.2513 11.2791 12.0769 10.6163C11.9514 10.1279 11.6865 9.56279 11.4216 9.21395L11.2542 8.9907L11.4216 8.76046C12.3001 7.59535 12.4674 5.64884 11.812 4.26744C11.4982 3.59767 10.8847 3.01163 10.1317 2.64884C8.95337 2.08372 8.33283 2.01395 4.48414 2.01395H1.5V7.76977L5.021 10.9442ZM10.9614 2.29302C11.8399 2.87907 12.4813 3.76512 12.7742 4.80465C12.8857 5.21628 12.8997 5.58605 12.8997 8.9907C12.8997 12.3535 12.8857 12.7651 12.7742 13.1698C12.4883 14.2093 11.8259 15.1302 10.9474 15.7093L10.5291 15.9814L11.4006 15.9465C14.1268 15.8209 15.9466 14.5233 16.3788 12.3953C16.437 12.1194 16.4741 11.2647 16.4904 10.2489C16.5032 9.44924 16.5032 8.54974 16.4904 7.75422C16.4747 6.77552 16.4397 5.9542 16.3858 5.66977C16.1906 4.65116 15.6468 3.74419 14.8589 3.15116C13.9455 2.46047 12.8439 2.10465 11.4006 2.04186L10.5291 2L10.9614 2.29302Z" fill="white"/>
</svg>

<svg width="18" height="18" fill="none" xmlns="http://www.w3.org/2000/svg"><path d="M1.5 7.77l3.521 3.174.02-3.035.015-3.035h1.178c1.248 0 1.632.063 2.03.35.655.467.668 1.576.027 2.071-.397.3-.69.363-1.645.37h-.893v2.651h.865c1.199 0 1.7.196 2 .789.328.634.105 1.367-.522 1.758l-.342.21-6.254.041v2.853h3.019c1.66 0 3.284-.034 3.605-.07 2.112-.258 3.437-1.192 3.918-2.755.195-.621.21-1.863.035-2.526-.126-.488-.39-1.053-.655-1.402l-.168-.223.168-.23c.878-1.166 1.045-3.112.39-4.494-.314-.67-.927-1.255-1.68-1.618-1.179-.565-1.8-.635-5.648-.635H1.5V7.77zm9.461-5.477a4.46 4.46 0 011.813 2.512c.112.411.126.781.126 4.186 0 3.363-.014 3.774-.126 4.179a4.49 4.49 0 01-1.827 2.54l-.418.271.872-.034c2.726-.126 4.546-1.424 4.978-3.552.058-.276.095-1.13.111-2.146.013-.8.013-1.7 0-2.495-.015-.978-.05-1.8-.104-2.084-.195-1.019-.74-1.926-1.527-2.519-.914-.69-2.015-1.046-3.458-1.11L10.529 2l.432.293z" fill="#fff"/><path fill-rule="evenodd" clip-rule="evenodd" d="M16.49 7.754v2.495c-.016 1.016-.053 1.87-.111 2.146-.432 2.128-2.252 3.426-4.978 3.552l-.872.034.418-.272a4.49 4.49 0 001.827-2.54c.112-.404.126-.816.126-4.178 0-3.405-.014-3.775-.126-4.186a4.46 4.46 0 00-1.813-2.512L10.53 2l.872.042c1.443.063 2.544.418 3.458 1.11.788.592 1.332 1.5 1.527 2.518.054.284.089 1.106.104 2.084zM1.5 13.114v2.853h3.019c1.66 0 3.284-.034 3.605-.07 2.112-.258 3.437-1.192 3.918-2.755.195-.621.21-1.863.035-2.526-.126-.488-.39-1.053-.655-1.402l-.168-.223.168-.23c.878-1.166 1.045-3.112.39-4.494-.314-.67-.927-1.255-1.68-1.618-1.179-.565-1.8-.635-5.648-.635H1.5V7.77l3.521 3.174.02-3.035.015-3.035h1.178c1.248 0 1.632.063 2.03.35.655.467.668 1.576.027 2.071-.397.3-.69.363-1.645.37h-.893v2.651h.865c1.199 0 1.7.196 2 .789.328.634.105 1.367-.522 1.758l-.342.21-6.254.041z" fill="#fff"/><path fill-rule="evenodd" clip-rule="evenodd" d="M5.021 10.944l.02-3.035.015-3.035h1.178c1.248 0 1.632.063 2.03.35.655.467.668 1.576.027 2.071-.397.3-.69.363-1.645.37h-.893v2.651h.865c1.199 0 1.7.196 2 .789.328.634.105 1.367-.522 1.758l-.342.21-6.254.041v2.853h3.019c1.66 0 3.284-.034 3.605-.07 2.112-.258 3.437-1.192 3.918-2.755.195-.621.21-1.863.035-2.526-.126-.488-.39-1.053-.655-1.402l-.168-.223.168-.23c.878-1.166 1.045-3.112.39-4.494-.314-.67-.927-1.255-1.68-1.618-1.179-.565-1.8-.635-5.648-.635H1.5V7.77l3.521 3.174zm5.94-8.651a4.46 4.46 0 011.813 2.512c.112.411.126.781.126 4.186 0 3.363-.014 3.774-.126 4.179a4.49 4.49 0 01-1.827 2.54l-.418.271.872-.034c2.726-.126 4.546-1.424 4.978-3.552.058-.276.095-1.13.111-2.146.013-.8.013-1.7 0-2.495-.015-.978-.05-1.8-.104-2.084-.195-1.019-.74-1.926-1.527-2.519-.914-.69-2.015-1.046-3.458-1.11L10.529 2l.432.293z" fill="#fff"/></svg>
